RCanvas/rh1_large.svg

<svg width="1200" height="800" viewBox="0 0 1000 700" preserveAspectRatio="none" xmlns="http://www.w3.org/2000/svg">
 <path d="M0,0H1000V700H0Z" style="fill: white;"></path>
 <g>
  <g transform="translate(70,84)">
   <rect x="0" y="0" width="880" height="532" style="fill: none; stroke: black; stroke-width: 1;"></rect>
   <g>
    <path d="M0,0v532M147,0v532M293,0v532M440,0v532M587,0v532M733,0v532M880,0v532" style="stroke: black; stroke-width: 1; stroke-dasharray: 1,2;"></path>
    <path d="M0,508h880M0,387h880M0,266h880M0,145h880M0,24h880" style="stroke: black; stroke-width: 1; stroke-dasharray: 1,2;"></path>
   </g>
   <svg x="0" y="0" overflow="hidden" width="880" height="532" viewBox="0 0 880 532">
    <g>
     <path d="M0,45v-2h1v-2v-5h1v-4h1v-4h1v-2h1v-1v-1h2v1h1v2h1v3h1v1v3h1v1v5h1v7h1v6h1v2v7h1v10h1v9h1v2v10h1v12h1v11h1v3v11h1v15h1v13h1v3v13h1v2v14h1v14h1v3v14h1v3v14h1v15h1v3v14h1v3v14h1v15h1v3v14h1v3v14h1v16h1v14h1v2v13h1v15h1v12h1v3v11h1v13h1v10h1v2v9h1v10h1v8h1v2v6h1v2v6h1v5h1v1v4h1v1v3h1v2h1v1h1v1h1v-1h1v-2h1v-3h1v-5h1v-4h1v-1v-6h1v-8h1v-7h1v-1v-9h1v-10h1v-10h1v-2v-11h1v-13h1v-12h1v-2v-12h1v-3v-12h1v-14h1v-2v-14h1v-3v-14h1v-14h1v-3v-14h1v-3v-14h1v-15h1v-3v-14h1v-3v-14h1v-18h1v-14h1v-2v-14h1v-16h1v-13h1v-3v-12h1v-15h1v-11h1v-2v-11h1v-12h1v-10h1v-2v-8h1v-2v-7h1v-7h1v-2v-6h1v-1v-5h1v-4h1v-1v-3h1v-1v-2h1v-1h1v-1h1v1h1v2h1v3h1v4h1v5h1v6h1v1v6h1v9h1v8h1v2v9h1v11h1v11h1v2v11h1v2v12h1v12h1v3v12h1v3v13h1v14h1v2v14h1v3v14h1v15h1v2v15h1v3v14h1v18h1v14h1v3v14h1v17h1v14h1v3v13h1v16h1v12h1v3v12h1v14h1v10h1v3v10h1v2v9h1v9h1v1v8h1v2v7h1v6h1v1v5h1v1v4h1v4h1v3h1v1h1v1h1v-1h1v-2h1v-3h1v-3h1v-1v-5h1v-6h1v-6h1v-2v-7h1v-10h1v-8h1v-2v-10h1v-2v-10h1v-11h1v-2v-12h1v-2v-13h1v-12h1v-3v-13h1v-3v-13h1v-14h1v-3v-14h1v-3v-14h1v-18h1v-14h1v-3v-14h1v-18h1v-14h1v-3v-14h1v-16h1v-14h1v-3v-13h1v-15h1v-12h1v-2v-12h1v-2v-11h1v-10h1v-2v-10h1v-1v-9h1v-8h1v-2v-7h1v-1v-6h1v-5h1v-1v-5h1v-1v-3h1v-3h1v-1h1v-1h1v1h1v1h1v1v2h1v4h1v5h1v1v5h1v8h1v7h1v1v8h1v2v9h1v9h1v2v11h1v2v11h1v11h1v3v12h1v2v13h1v13h1v3v13h1v3v14h1v17h1v14h1v3v14h1v18h1v14h1v3v14h1v18h1v14h1v2v14h1v16h1v14h1v2v13h1v2v12h1v12h1v2v11h1v2v11h1v9h1v2v9h1v1v8h1v8h1v1v6h1v1v6h1v5h1v3h1v1v2h1v2h1v1h1v-1h1v-1h1v-3h1v-4h1v-5h1v-5h1v-1v-7h1v-1v-7h1v-8h1v-2v-8h1v-2v-10h1v-10h1v-2v-11h1v-2v-12h1v-12h1v-2v-13h1v-2v-13h1v-17h1v-13h1v-3v-14h1v-17h1v-15h1v-3v-14h1v-18h1v-14h1v-3v-14h1v-17h1v-14h1v-3v-13h1v-3v-13h1v-13h1v-2v-13h1v-2v-11h1v-11h1v-3v-10h1v-2v-10h1v-8h1v-2v-8h1v-2v-7h1v-7h1v-6h1v-1v-4h1v-5h1v-2h1v-1v-1h1v-1h1v1h1v1h1v3h1v3h1v1v4h1v1v5h1v7h1v1v7h1v1v8h1v9h1v2v9h1v2v10h1v11h1v2v12h1v2v12h1v15h1v13h1v3v13h1v17h1v14h1v3v14h1v17h1v15h1v3v14h1v18h1v14h1v3v14h1v3v14h1v13h1v3v13h1v3v12h1v13h1v2v12h1v2v11h1v10h1v2v10h1v2v9h1v9h1v8h1v1v6h1v7h1v5h1v4h1v3h1v2h1v1h1v-1h1v-1h1v-2h1v-1v-3h1v-4h1v-1v-6h1v-1v-6h1v-7h1v-1v-8h1v-2v-8h1v-10h1v-2v-10h1v-2v-11h1v-13h1v-12h1v-3v-12h1v-16h1v-13h1v-3v-14h1v-17h1v-14h1v-3v-14h1v-18h1v-14h1v-3v-14h1v-3v-15h1v-14h1v-3v-13h1v-3v-14h1v-13h1v-3v-12h1v-3v-12h1v-12h1v-2v-11h1v-2v-11h1v-11h1v-9h1v-2v-8h1v-9h1v-6h1v-2v-5h1v-6h1v-4h1v-3h1v-2h1v-1h2v1v1h1v2h1v1v3h1v5h1v5h1v1v6h1v1v7h1v8h1v1v9h1v2v9h1v12h1v11h1v2v11h1v15h1v12h1v3v13h1v16h1v14h1v2v14h1v17h1v15h1v3v14h1v3v15h1v14h1v3v14h1v3v14h1v14h1v3v14h1v2v14h1v12h1v3v12h1v3v11h1v14h1v10h1v2v10h1v11h1v8h1v2v7h1v8h1v5h1v1v5h1v5h1v2h1v1v2h1v1h2v-2h1v-2h1v-3h1v-1v-4h1v-1v-5h1v-6h1v-1v-7h1v-1v-8h1v-10h1v-9h1v-2v-10h1v-13h1v-12h1v-2v-12h1v-15h1v-13h1v-2v-14h1v-16h1v-14h1v-3v-14h1v-3v-14h1v-15h1v-3v-14h1v-3v-15h1v-14h1v-3v-14h1v-3v-14h1v-13h1v-3v-13h1v-3v-13h1v-15h1v-11h1v-3v-11h1v-13h1v-9h1v-2v-9h1v-10h1v-8h1v-1v-7h1v-7h1v-4h1v-1v-4h1v-1v-3h1v-2h1v-1h2v1h1v1v2h1v3h1v4h1v1v5h1v1v6h1v8h1v8h1v1v9h1v11h1v10h1v2v10h1v14h1v12h1v2v13h1v15h1v14h1v2v14h1v3v14h1v14h1v3v14h1v3v14h1v15h1v3v14h1v3v15h1v14h1v3v14h1v2v14h1v16h1v13h1v2v13h1v14h1v11h1v2v11h1v12h1v9h1v2v8h1v9h1v7h1v1v6h1v1v5h1v4h1v3h1v1v2h1v1h2v-1h1v-2h1v-1v-3h1v-4h1v-6h1v-6h1v-1v-7h1v-9h1v-8h1v-2v-9h1v-12h1v-11h1v-2v-11h1v-14h1v-13h1v-2v-13h1v-3v-13h1v-14h1v-2v-14h1v-3v-14h1v-15h1v-3v-14h1v-3v-15h1v-14h1v-3v-14h1v-3v-14h1v-17h1v-14h1v-3v-13h1v-15h1v-13h1v-2v-12h1v-14h1v-10h1v-2v-10h1v-11h1v-9h1v-1v-8h1v-1v-7h1v-6h1v-1v-5h1v-1v-4h1v-3h1v-2h1v-1v-1h2v1h1v1v1h1v4h1v4h1v1v4h1v7h1v7h1v1v8h1v10h1v9h1v2v9h1v1v12h1v11h1v3v11h1v3v12h1v13h1v3v13h1v3v13h1v14h1v3v14h1v3v14h1v15h1v3v14h1v3v15h1v17h1v14h1v3v14h1v16h1v14h1v2v13h1v15h1v12h1v3v11h1v13h1v10h1v2v9h1v2v8h1v8h1v1v7h1v1v6h1v5h1v1v4h1v1v3h1v2h1v2h2v-1h1v-2h1v-1v-2h1v-5h1v-5h1v-1v-5h1v-8h1v-7h1v-2v-8h1v-11h1v-10h1v-2v-10h1v-3v-11h1v-11h1v-3v-12h1v-3v-13h1v-13h1v-2v-14h1v-3v-14h1v-14h1v-3v-14h1v-3v-14h1v-18h1v-14h1v-3v-15h1v-17h1v-14h1v-2v-14h1v-16h1v-13h1v-3v-12h1v-15h1v-11h1v-2v-11h1v-2v-10h1v-9h1v-2v-9h1v-1v-8h1v-7h1v-1v-6h1v-1v-5h1v-5h1v-3h1v-1v-2h1v-2h2v1h1v2h1v3h1v1v3h1v6h1v5h1v2v6h1v9h1v8h1v2v9h1v2v9h1v11h1v2v11h1v2v12h1v12h1v3v12h1v3v13h1v14h1v3v13h1v3v14h1v18h1v14h1v3v15h1v17h1v14h1v3v14h1v17h1v14h1v3v13h1v16h1v12h1v3v12h1v2v12h1v10h1v2v11h1v1v10h1v8h1v2v8h1v1v7h1v6h1v1v6h1v1v4h1v4h1v2h1v1h1v1h1v-1h1v-2h1v-3h1v-4h1v-5h1v-7h1v-6h1v-1v-8h1v-1v-8h1v-9h1v-2v-10h1v-2v-10h1v-11h1v-2v-12h1v-2v-13h1v-12h1v-3v-13h1v-3v-13h1v-17h1v-14h1v-3v-14h1v-18h1v-14h1v-3v-15h1v-17h1v-14h1v-3v-14h1v-17h1v-13h1v-3v-13h1v-2v-13h1v-12h1v-2v-12h1v-2v-11h1v-10h1v-2v-9h1v-2v-9h1v-8h1v-1v-7h1v-1v-7h1v-6h1v-4h1v-1v-3h1v-3h1v-1h1v-1h1v1h1v1h1v1v3h1v4h1v4h1v1v6h1v1v6h1v7h1v2v8h1v2v9h1v9h1v2v10h1v3v11h1v11h1v3v12h1v2v13h1v16h1v13h1v3v14h1v17h1v14h1v3v14h1v18h1v14h1v3v15h1v17h1v14h1v3v13h1v3v14h1v13h1v2v13h1v2v12h1v12h1v2v11h1v2v10h1v10h1v2v8h1v2v8h1v8h1v7h1v1v5h1v5h1v4h1v3h1v1h1v1h1v-1h1v-2h1v-2h1v-1v-3h1v-1v-4h1v-6h1v-1v-6h1v-1v-8h1v-8h1v-1v-9h1v-2v-9h1v-11h1v-2v-11h1v-2v-12h1v-14h1v-13h1v-2v-14h1v-16h1v-14h1v-2v-14h1v-18h1v-14h1v-3v-14h1v-18h1v-14h1v-3v-14h1v-3v-14h1v-14h1v-3v-13h1v-3v-13h1v-13h1v-2v-12h1v-3v-11h1v-11h1v-2v-11h1v-2v-9h1v-11h1v-8h1v-1v-7h1v-8h1v-5h1v-1v-5h1v-4h1v-2h1v-1v-1h1v-1h1v1h1v1h1v1v2h1v3h1v1v5h1v1v5h1v6h1v1v7h1v2v8h1v9h1v1v10h1v2v10h1v13h1v12h1v2v12h1v15h1v13h1v3v14h1v16h1v14h1v3v14h1v18h1v14h1v3v15h1v2v15h1v14h1v3v14h1v3v14h1v13h1v3v13h1v3v12h1v13h1v2v12h1v2v11h1v12h1v10h1v2v8h1v10h1v7h1v2v6h1v6h1v5h1v1v3h1v3h1v1" style="stroke-linejoin: miter; stroke: #00FF00; stroke-width: 1; fill: none;"></path>
    </g>
   </svg>
   <g>
    <g transform="translate(0,532)">
     <path d="M0,-14v14m29,-7v7m30,-7v7m29,-7v7m29,-7v7m30,-14v14m29,-7v7m29,-7v7m30,-7v7m29,-7v7m29,-14v14m30,-7v7m29,-7v7m29,-7v7m30,-7v7m29,-14v14m29,-7v7m30,-7v7m29,-7v7m29,-7v7m30,-14v14m29,-7v7m29,-7v7m30,-7v7m29,-7v7m29,-14v14m30,-7v7m29,-7v7m29,-7v7m30,-7v7m29,-14v14" style="stroke: black;"></path>
     <g font-family="Arial" font-size="21" space="preserve">
      <text text-anchor="middle" dy=".8em" transform="translate(0,4)">
       1
      </text>
      <text text-anchor="middle" dy=".8em" transform="translate(147,4)">
       1.5
      </text>
      <text text-anchor="middle" dy=".8em" transform="translate(293,4)">
       2
      </text>
      <text text-anchor="middle" dy=".8em" transform="translate(440,4)">
       2.5
      </text>
      <text text-anchor="middle" dy=".8em" transform="translate(587,4)">
       3
      </text>
      <text text-anchor="middle" dy=".8em" transform="translate(733,4)">
       3.5
      </text>
      <text text-anchor="middle" dy=".8em" transform="translate(880,4)">
       4
      </text>
      <g transform="translate(885,-8)">
       <text font-size="21">
        ×10
       </text>
       <text font-size="13" transform="translate(33,-10)">
        6
       </text>
      </g>
     </g>
    </g>
    <g transform="translate(0,532)">
     <path d="M20,-24h-20m10,-24h-10m10,-25h-10m10,-24h-10m10,-24h-10m20,-24h-20m10,-24h-10m10,-24h-10m10,-25h-10m10,-24h-10m20,-24h-20m10,-24h-10m10,-24h-10m10,-25h-10m10,-24h-10m20,-24h-20m10,-24h-10m10,-24h-10m10,-24h-10m10,-25h-10m20,-24h-20" style="stroke: black;"></path>
     <g font-family="Arial" font-size="21" space="preserve">
      <text text-anchor="end" dy=".4em" transform="translate(-5,-24)">
       1000
      </text>
      <text text-anchor="end" dy=".4em" transform="translate(-5,-145)">
       1500
      </text>
      <text text-anchor="end" dy=".4em" transform="translate(-5,-266)">
       2000
      </text>
      <text text-anchor="end" dy=".4em" transform="translate(-5,-387)">
       2500
      </text>
      <text text-anchor="end" dy=".4em" transform="translate(-5,-508)">
       3000
      </text>
     </g>
    </g>
   </g>
  </g>
  <g transform="translate(70,35)" font-family="Arial" font-size="49" space="preserve">
   <text fill="black" text-anchor="middle" dy=".4em" transform="translate(440,18)">
    Large RH1D histogram with 5000000 bins
   </text>
  </g>
  <g transform="translate(630,98)">
   <rect x="0" width="300" y="0" height="210" style="stroke: black; stroke-width: 1; fill: #0000FF;"></rect>
   <g font-family="Arial" font-size="29" space="preserve">
    <text fill="black" text-anchor="middle" dy=".4em" transform="translate(150,18)">
     hist
    </text>
    <text fill="black" text-anchor="start" dy=".4em" transform="translate(6,53)">
     Entries
    </text>
    <text fill="black" text-anchor="end" dy=".4em" transform="translate(294,53)">
     1
    </text>
    <text fill="black" text-anchor="start" dy=".4em" transform="translate(6,88)">
     Mean
    </text>
    <text fill="black" text-anchor="end" dy=".4em" transform="translate(294,88)">
     2
    </text>
    <text fill="black" text-anchor="start" dy=".4em" transform="translate(6,123)">
     Std dev
    </text>
    <text fill="black" text-anchor="end" dy=".4em" transform="translate(294,123)">
     3
    </text>
    <text fill="black" text-anchor="start" dy=".4em" transform="translate(6,158)">
     X min
    </text>
    <text fill="black" text-anchor="end" dy=".4em" transform="translate(294,158)">
     1000000.000000
    </text>
    <text fill="black" text-anchor="start" dy=".4em" transform="translate(6,193)">
     X max
    </text>
    <text fill="black" text-anchor="end" dy=".4em" transform="translate(294,193)">
     4000000.000000
    </text>
   </g>
   <path d="M0,35h300"></path>
  </g>
 </g>
</svg>

<svg width="1200" height="800" viewBox="0 0 1000 700" preserveAspectRatio="none" xmlns="http://www.w3.org/2000/svg">
 <path d="M0,0H1000V700H0Z" style="fill: white;"></path>
 <g>
  <g transform="translate(70,84)">
   <rect x="0" y="0" width="880" height="532" style="fill: none; stroke: black; stroke-width: 1;"></rect>
   <g>
    <path d="M0,0v532M147,0v532M293,0v532M440,0v532M587,0v532M733,0v532M880,0v532" style="stroke: black; stroke-width: 1; stroke-dasharray: 1,2;"></path>
    <path d="M0,508h880M0,387h880M0,266h880M0,145h880M0,24h880" style="stroke: black; stroke-width: 1; stroke-dasharray: 1,2;"></path>
   </g>
   <svg x="0" y="0" overflow="hidden" width="880" height="532" viewBox="0 0 880 532">
    <g>
     <path d="M0,45v-2h1v-2v-5h1v-4h1v-4h1v-2h1v-1v-1h2v1h1v2h1v3h1v1v3h1v1v5h1v7h1v6h1v2v7h1v10h1v9h1v2v10h1v12h1v11h1v3v11h1v15h1v13h1v3v13h1v2v14h1v14h1v3v14h1v3v14h1v15h1v3v14h1v3v14h1v15h1v3v14h1v3v14h1v16h1v14h1v2v13h1v15h1v12h1v3v11h1v13h1v10h1v2v9h1v10h1v8h1v2v6h1v2v6h1v5h1v1v4h1v1v3h1v2h1v1h1v1h1v-1h1v-2h1v-3h1v-5h1v-4h1v-1v-6h1v-8h1v-7h1v-1v-9h1v-10h1v-10h1v-2v-11h1v-13h1v-12h1v-2v-12h1v-3v-12h1v-14h1v-2v-14h1v-3v-14h1v-14h1v-3v-14h1v-3v-14h1v-15h1v-3v-14h1v-3v-14h1v-18h1v-14h1v-2v-14h1v-16h1v-13h1v-3v-12h1v-15h1v-11h1v-2v-11h1v-12h1v-10h1v-2v-8h1v-2v-7h1v-7h1v-2v-6h1v-1v-5h1v-4h1v-1v-3h1v-1v-2h1v-1h1v-1h1v1h1v2h1v3h1v4h1v5h1v6h1v1v6h1v9h1v8h1v2v9h1v11h1v11h1v2v11h1v2v12h1v12h1v3v12h1v3v13h1v14h1v2v14h1v3v14h1v15h1v2v15h1v3v14h1v18h1v14h1v3v14h1v17h1v14h1v3v13h1v16h1v12h1v3v12h1v14h1v10h1v3v10h1v2v9h1v9h1v1v8h1v2v7h1v6h1v1v5h1v1v4h1v4h1v3h1v1h1v1h1v-1h1v-2h1v-3h1v-3h1v-1v-5h1v-6h1v-6h1v-2v-7h1v-10h1v-8h1v-2v-10h1v-2v-10h1v-11h1v-2v-12h1v-2v-13h1v-12h1v-3v-13h1v-3v-13h1v-14h1v-3v-14h1v-3v-14h1v-18h1v-14h1v-3v-14h1v-18h1v-14h1v-3v-14h1v-16h1v-14h1v-3v-13h1v-15h1v-12h1v-2v-12h1v-2v-11h1v-10h1v-2v-10h1v-1v-9h1v-8h1v-2v-7h1v-1v-6h1v-5h1v-1v-5h1v-1v-3h1v-3h1v-1h1v-1h1v1h1v1h1v1v2h1v4h1v5h1v1v5h1v8h1v7h1v1v8h1v2v9h1v9h1v2v11h1v2v11h1v11h1v3v12h1v2v13h1v13h1v3v13h1v3v14h1v17h1v14h1v3v14h1v18h1v14h1v3v14h1v18h1v14h1v2v14h1v16h1v14h1v2v13h1v2v12h1v12h1v2v11h1v2v11h1v9h1v2v9h1v1v8h1v8h1v1v6h1v1v6h1v5h1v3h1v1v2h1v2h1v1h1v-1h1v-1h1v-3h1v-4h1v-5h1v-5h1v-1v-7h1v-1v-7h1v-8h1v-2v-8h1v-2v-10h1v-10h1v-2v-11h1v-2v-12h1v-12h1v-2v-13h1v-2v-13h1v-17h1v-13h1v-3v-14h1v-17h1v-15h1v-3v-14h1v-18h1v-14h1v-3v-14h1v-17h1v-14h1v-3v-13h1v-3v-13h1v-13h1v-2v-13h1v-2v-11h1v-11h1v-3v-10h1v-2v-10h1v-8h1v-2v-8h1v-2v-7h1v-7h1v-6h1v-1v-4h1v-5h1v-2h1v-1v-1h1v-1h1v1h1v1h1v3h1v3h1v1v4h1v1v5h1v7h1v1v7h1v1v8h1v9h1v2v9h1v2v10h1v11h1v2v12h1v2v12h1v15h1v13h1v3v13h1v17h1v14h1v3v14h1v17h1v15h1v3v14h1v18h1v14h1v3v14h1v3v14h1v13h1v3v13h1v3v12h1v13h1v2v12h1v2v11h1v10h1v2v10h1v2v9h1v9h1v8h1v1v6h1v7h1v5h1v4h1v3h1v2h1v1h1v-1h1v-1h1v-2h1v-1v-3h1v-4h1v-1v-6h1v-1v-6h1v-7h1v-1v-8h1v-2v-8h1v-10h1v-2v-10h1v-2v-11h1v-13h1v-12h1v-3v-12h1v-16h1v-13h1v-3v-14h1v-17h1v-14h1v-3v-14h1v-18h1v-14h1v-3v-14h1v-3v-15h1v-14h1v-3v-13h1v-3v-14h1v-13h1v-3v-12h1v-3v-12h1v-12h1v-2v-11h1v-2v-11h1v-11h1v-9h1v-2v-8h1v-9h1v-6h1v-2v-5h1v-6h1v-4h1v-3h1v-2h1v-1h2v1v1h1v2h1v1v3h1v5h1v5h1v1v6h1v1v7h1v8h1v1v9h1v2v9h1v12h1v11h1v2v11h1v15h1v12h1v3v13h1v16h1v14h1v2v14h1v17h1v15h1v3v14h1v3v15h1v14h1v3v14h1v3v14h1v14h1v3v14h1v2v14h1v12h1v3v12h1v3v11h1v14h1v10h1v2v10h1v11h1v8h1v2v7h1v8h1v5h1v1v5h1v5h1v2h1v1v2h1v1h2v-2h1v-2h1v-3h1v-1v-4h1v-1v-5h1v-6h1v-1v-7h1v-1v-8h1v-10h1v-9h1v-2v-10h1v-13h1v-12h1v-2v-12h1v-15h1v-13h1v-2v-14h1v-16h1v-14h1v-3v-14h1v-3v-14h1v-15h1v-3v-14h1v-3v-15h1v-14h1v-3v-14h1v-3v-14h1v-13h1v-3v-13h1v-3v-13h1v-15h1v-11h1v-3v-11h1v-13h1v-9h1v-2v-9h1v-10h1v-8h1v-1v-7h1v-7h1v-4h1v-1v-4h1v-1v-3h1v-2h1v-1h2v1h1v1v2h1v3h1v4h1v1v5h1v1v6h1v8h1v8h1v1v9h1v11h1v10h1v2v10h1v14h1v12h1v2v13h1v15h1v14h1v2v14h1v3v14h1v14h1v3v14h1v3v14h1v15h1v3v14h1v3v15h1v14h1v3v14h1v2v14h1v16h1v13h1v2v13h1v14h1v11h1v2v11h1v12h1v9h1v2v8h1v9h1v7h1v1v6h1v1v5h1v4h1v3h1v1v2h1v1h2v-1h1v-2h1v-1v-3h1v-4h1v-6h1v-6h1v-1v-7h1v-9h1v-8h1v-2v-9h1v-12h1v-11h1v-2v-11h1v-14h1v-13h1v-2v-13h1v-3v-13h1v-14h1v-2v-14h1v-3v-14h1v-15h1v-3v-14h1v-3v-15h1v-14h1v-3v-14h1v-3v-14h1v-17h1v-14h1v-3v-13h1v-15h1v-13h1v-2v-12h1v-14h1v-10h1v-2v-10h1v-11h1v-9h1v-1v-8h1v-1v-7h1v-6h1v-1v-5h1v-1v-4h1v-3h1v-2h1v-1v-1h2v1h1v1v1h1v4h1v4h1v1v4h1v7h1v7h1v1v8h1v10h1v9h1v2v9h1v1v12h1v11h1v3v11h1v3v12h1v13h1v3v13h1v3v13h1v14h1v3v14h1v3v14h1v15h1v3v14h1v3v15h1v17h1v14h1v3v14h1v16h1v14h1v2v13h1v15h1v12h1v3v11h1v13h1v10h1v2v9h1v2v8h1v8h1v1v7h1v1v6h1v5h1v1v4h1v1v3h1v2h1v2h2v-1h1v-2h1v-1v-2h1v-5h1v-5h1v-1v-5h1v-8h1v-7h1v-2v-8h1v-11h1v-10h1v-2v-10h1v-3v-11h1v-11h1v-3v-12h1v-3v-13h1v-13h1v-2v-14h1v-3v-14h1v-14h1v-3v-14h1v-3v-14h1v-18h1v-14h1v-3v-15h1v-17h1v-14h1v-2v-14h1v-16h1v-13h1v-3v-12h1v-15h1v-11h1v-2v-11h1v-2v-10h1v-9h1v-2v-9h1v-1v-8h1v-7h1v-1v-6h1v-1v-5h1v-5h1v-3h1v-1v-2h1v-2h2v1h1v2h1v3h1v1v3h1v6h1v5h1v2v6h1v9h1v8h1v2v9h1v2v9h1v11h1v2v11h1v2v12h1v12h1v3v12h1v3v13h1v14h1v3v13h1v3v14h1v18h1v14h1v3v15h1v17h1v14h1v3v14h1v17h1v14h1v3v13h1v16h1v12h1v3v12h1v2v12h1v10h1v2v11h1v1v10h1v8h1v2v8h1v1v7h1v6h1v1v6h1v1v4h1v4h1v2h1v1h1v1h1v-1h1v-2h1v-3h1v-4h1v-5h1v-7h1v-6h1v-1v-8h1v-1v-8h1v-9h1v-2v-10h1v-2v-10h1v-11h1v-2v-12h1v-2v-13h1v-12h1v-3v-13h1v-3v-13h1v-17h1v-14h1v-3v-14h1v-18h1v-14h1v-3v-15h1v-17h1v-14h1v-3v-14h1v-17h1v-13h1v-3v-13h1v-2v-13h1v-12h1v-2v-12h1v-2v-11h1v-10h1v-2v-9h1v-2v-9h1v-8h1v-1v-7h1v-1v-7h1v-6h1v-4h1v-1v-3h1v-3h1v-1h1v-1h1v1h1v1h1v1v3h1v4h1v4h1v1v6h1v1v6h1v7h1v2v8h1v2v9h1v9h1v2v10h1v3v11h1v11h1v3v12h1v2v13h1v16h1v13h1v3v14h1v17h1v14h1v3v14h1v18h1v14h1v3v15h1v17h1v14h1v3v13h1v3v14h1v13h1v2v13h1v2v12h1v12h1v2v11h1v2v10h1v10h1v2v8h1v2v8h1v8h1v7h1v1v5h1v5h1v4h1v3h1v1h1v1h1v-1h1v-2h1v-2h1v-1v-3h1v-1v-4h1v-6h1v-1v-6h1v-1v-8h1v-8h1v-1v-9h1v-2v-9h1v-11h1v-2v-11h1v-2v-12h1v-14h1v-13h1v-2v-14h1v-16h1v-14h1v-2v-14h1v-18h1v-14h1v-3v-14h1v-18h1v-14h1v-3v-14h1v-3v-14h1v-14h1v-3v-13h1v-3v-13h1v-13h1v-2v-12h1v-3v-11h1v-11h1v-2v-11h1v-2v-9h1v-11h1v-8h1v-1v-7h1v-8h1v-5h1v-1v-5h1v-4h1v-2h1v-1v-1h1v-1h1v1h1v1h1v1v2h1v3h1v1v5h1v1v5h1v6h1v1v7h1v2v8h1v9h1v1v10h1v2v10h1v13h1v12h1v2v12h1v15h1v13h1v3v14h1v16h1v14h1v3v14h1v18h1v14h1v3v15h1v2v15h1v14h1v3v14h1v3v14h1v13h1v3v13h1v3v12h1v13h1v2v12h1v2v11h1v12h1v10h1v2v8h1v10h1v7h1v2v6h1v6h1v5h1v1v3h1v3h1v1" style="stroke-linejoin: miter; stroke: #00FF00; stroke-width: 1; fill: none;"></path>
    </g>
   </svg>
   <g>
    <g transform="translate(0,532)">
     <path d="M0,-14V0M29,-7V0M59,-7V0M88,-7V0M117,-7V0M147,-14V0M176,-7V0M205,-7V0M235,-7V0M264,-7V0M293,-14V0M323,-7V0M352,-7V0M381,-7V0M411,-7V0M440,-14V0M469,-7V0M499,-7V0M528,-7V0M557,-7V0M587,-14V0M616,-7V0M645,-7V0M675,-7V0M704,-7V0M733,-14V0M763,-7V0M792,-7V0M821,-7V0M851,-7V0M880,-14V0" style="stroke: black;"></path>
     <g font-family="Arial" font-size="21" space="preserve">
      <text text-anchor="middle" dy=".8em" transform="translate(0,4)">
       1
      </text>
      <text text-anchor="middle" dy=".8em" transform="translate(147,4)">
       1.5
      </text>
      <text text-anchor="middle" dy=".8em" transform="translate(293,4)">
       2
      </text>
      <text text-anchor="middle" dy=".8em" transform="translate(440,4)">
       2.5
      </text>
      <text text-anchor="middle" dy=".8em" transform="translate(587,4)">
       3
      </text>
      <text text-anchor="middle" dy=".8em" transform="translate(733,4)">
       3.5
      </text>
      <text text-anchor="middle" dy=".8em" transform="translate(880,4)">
       4
      </text>
      <g transform="translate(885,-8)">
       <text font-size="21">
        ×10
       </text>
       <text font-size="13" transform="translate(33,-10)">
        6
       </text>
      </g>
     </g>
    </g>
    <g transform="translate(0,532)">
     <path d="M20,-24H0M10,-48H0M10,-73H0M10,-97H0M10,-121H0M20,-145H0M10,-169H0M10,-193H0M10,-218H0M10,-242H0M20,-266H0M10,-290H0M10,-314H0M10,-339H0M10,-363H0M20,-387H0M10,-411H0M10,-435H0M10,-459H0M10,-484H0M20,-508H0" style="stroke: black;"></path>
     <g font-family="Arial" font-size="21" space="preserve">
      <text text-anchor="end" dy=".4em" transform="translate(-5,-24)">
       1000
      </text>
      <text text-anchor="end" dy=".4em" transform="translate(-5,-145)">
       1500
      </text>
      <text text-anchor="end" dy=".4em" transform="translate(-5,-266)">
       2000
      </text>
      <text text-anchor="end" dy=".4em" transform="translate(-5,-387)">
       2500
      </text>
      <text text-anchor="end" dy=".4em" transform="translate(-5,-508)">
       3000
      </text>
     </g>
    </g>
   </g>
  </g>
  <g transform="translate(70,35)" font-family="Arial" font-size="49" space="preserve">
   <text fill="black" text-anchor="middle" dy=".4em" transform="translate(440,18)">
    Large RH1D histogram with 5000000 bins
   </text>
  </g>
  <g transform="translate(630,98)">
   <rect x="0" width="300" y="0" height="210" style="stroke: black; stroke-width: 1; fill: #0000FF;"></rect>
   <g font-family="Arial" font-size="29" space="preserve">
    <text fill="black" text-anchor="middle" dy=".4em" transform="translate(150,18)">
     hist
    </text>
    <text fill="black" text-anchor="start" dy=".4em" transform="translate(6,53)">
     Entries
    </text>
    <text fill="black" text-anchor="end" dy=".4em" transform="translate(294,53)">
     1
    </text>
    <text fill="black" text-anchor="start" dy=".4em" transform="translate(6,88)">
     Mean
    </text>
    <text fill="black" text-anchor="end" dy=".4em" transform="translate(294,88)">
     2
    </text>
    <text fill="black" text-anchor="start" dy=".4em" transform="translate(6,123)">
     Std dev
    </text>
    <text fill="black" text-anchor="end" dy=".4em" transform="translate(294,123)">
     3
    </text>
    <text fill="black" text-anchor="start" dy=".4em" transform="translate(6,158)">
     X min
    </text>
    <text fill="black" text-anchor="end" dy=".4em" transform="translate(294,158)">
     1000000.000000
    </text>
    <text fill="black" text-anchor="start" dy=".4em" transform="translate(6,193)">
     X max
    </text>
    <text fill="black" text-anchor="end" dy=".4em" transform="translate(294,193)">
     4000000.000000
    </text>
   </g>
   <path d="M0,35h300"></path>
  </g>
 </g>
</svg>
